packages/foundations/assets/icons/functional/images/logos/s_bahn_32.svg

<svg width="32" height="32" viewBox="0 0 32 32" fill="none" xmlns="http://www.w3.org/2000/svg">
<g clip-path="url(#clip0_185_1709)">
<path fill-rule="evenodd" clip-rule="evenodd" d="M16.0004 2C23.7321 2 30 8.26816 30 16.0004C30 23.732 23.732 30 16.0004 30C8.37218 30 2.16966 23.9006 2.00342 16.313L2 16.0004L2.00342 15.6877C2.16966 8.09955 8.37207 2 16.0004 2ZM16.0004 4C9.47413 4 4.16559 9.20832 4.0038 15.6954L4 16.0004L4.0038 16.3053C4.1656 22.7918 9.47423 28 16.0004 28C22.6274 28 28 22.6274 28 16.0004C28 9.37271 22.6275 4 16.0004 4ZM15.4488 8C17.6697 8 19.6594 8.7541 21.2405 10.0234V12.6896C19.8723 11.163 17.8119 9.82092 15.3953 9.82092C14.0277 9.82092 13.2457 10.575 13.2457 11.4578C13.2457 12.6341 14.1418 13.176 15.3665 13.5612C16.1612 13.8069 16.7201 13.9125 17.9371 14.2239C20.0943 14.8005 22.1818 15.7149 22.1818 18.6654C22.1818 21.1307 19.8723 24 15.9822 24C13.8147 24 11.3096 22.988 9.94247 21.7192V18.5188C11.2388 20.4499 13.6013 21.9391 15.9822 21.9391C17.439 21.9391 18.6111 21.0759 18.6111 20.1557C18.6111 18.9777 17.6007 18.4462 16.2649 18.0248C15.3665 17.7542 15.0156 17.6568 14.1029 17.4082C11.9425 16.7622 9.81818 15.7836 9.81818 12.8368C9.81818 9.69169 12.7843 8 15.4488 8Z" fill="#1A1C1F"/>
</g>
<defs>
<clipPath id="clip0_185_1709">
<rect width="32" height="32" fill="white"/>
</clipPath>
</defs>
</svg>

<svg xmlns="http://www.w3.org/2000/svg" width="32" height="32" fill="none"><g clip-path="url(#a)"><path fill="#1A1C1F" fill-rule="evenodd" d="M16 2c7.732 0 14 6.268 14 14s-6.268 14-14 14C8.372 30 2.17 23.9 2.003 16.313L2 16l.003-.312C2.17 8.1 8.373 2 16 2m0 2C9.474 4 4.166 9.208 4.004 15.695L4 16l.004.305C4.166 22.792 9.474 28 16 28c6.627 0 12-5.373 12-12S22.628 4 16 4m-.551 4c2.22 0 4.21.754 5.792 2.023v2.667c-1.369-1.527-3.43-2.87-5.846-2.87-1.367 0-2.15.755-2.15 1.638 0 1.176.897 1.718 2.122 2.103.794.246 1.353.351 2.57.663 2.157.576 4.245 1.49 4.245 4.441 0 2.466-2.31 5.335-6.2 5.335-2.167 0-4.672-1.012-6.04-2.28v-3.201c1.297 1.93 3.66 3.42 6.04 3.42 1.457 0 2.63-.863 2.63-1.783 0-1.178-1.011-1.71-2.347-2.131-.899-.27-1.25-.368-2.162-.617-2.16-.646-4.285-1.624-4.285-4.571C9.818 9.692 12.784 8 15.448 8" clip-rule="evenodd"/></g><defs><clipPath id="a"><path fill="#fff" d="M0 0h32v32H0z"/></clipPath></defs></svg>
